img/border.svg

<svg width="161" height="122" viewBox="0 0 161 122" fill="none" xmlns="http://www.w3.org/2000/svg">
<mask id="path-1-inside-1" fill="white">
<path fill-rule="evenodd" clip-rule="evenodd" d="M23.9999 4H136C147.598 4 157 13.402 157 25V97C157 108.598 147.598 118 136 118H23.9999C15.0248 118 7.3647 112.37 4.35911 104.448C4.03737 103.6 3.24778 103 2.34083 103C1.01009 103 0.0306811 104.252 0.483264 105.503C3.96277 115.124 13.1784 122 23.9999 122H136C149.807 122 161 110.807 161 97V25C161 11.1929 149.807 0 136 0H23.9999C12.7758 0 3.27927 7.39676 0.118935 17.5817C-0.263412 18.8139 0.706408 20 1.99657 20C2.93711 20 3.74585 19.3531 4.03855 18.4592C6.78775 10.0639 14.6857 4 23.9999 4Z"/>
</mask>
<path d="M0.483264 105.503L-3.2783 106.864L0.483264 105.503ZM4.35911 104.448L8.09895 103.029L4.35911 104.448ZM136 0H23.9999V8H136V0ZM161 25C161 11.1929 149.807 0 136 0V8C145.389 8 153 15.6112 153 25H161ZM161 97V25H153V97H161ZM136 122C149.807 122 161 110.807 161 97H153C153 106.389 145.389 114 136 114V122ZM23.9999 122H136V114H23.9999V122ZM0.619268 105.867C4.19491 115.291 13.3089 122 23.9999 122V114C16.7407 114 10.5345 109.448 8.09895 103.029L0.619268 105.867ZM-3.2783 106.864C0.755859 118.018 11.4407 126 23.9999 126V118C14.9161 118 7.16969 112.23 4.24482 104.143L-3.2783 106.864ZM23.9999 126H136V118H23.9999V126ZM136 126C152.016 126 165 113.016 165 97H157C157 108.598 147.598 118 136 118V126ZM165 97V25H157V97H165ZM165 25C165 8.98374 152.016 -4 136 -4V4C147.598 4 157 13.402 157 25H165ZM136 -4H23.9999V4H136V-4ZM23.9999 -4C10.9739 -4 -0.0364575 4.58519 -3.70138 16.3963L3.93925 18.7671C6.59499 10.2083 14.5777 4 23.9999 4V-4ZM23.9999 0C12.9054 0 3.50865 7.2242 0.237179 17.2144L7.83992 19.7041C10.0669 12.9036 16.466 8 23.9999 8V0ZM1.99657 24C4.84362 24 7.06619 22.0668 7.83992 19.7041L0.237179 17.2144C0.425507 16.6393 1.0306 16 1.99657 16V24ZM-3.70138 16.3963C-4.97099 20.4879 -1.68255 24 1.99657 24V16C3.09536 16 4.44417 17.1399 3.93925 18.7671L-3.70138 16.3963ZM2.34083 99C-1.43292 99 -4.7834 102.702 -3.2783 106.864L4.24482 104.143C4.51016 104.877 4.33886 105.659 3.9349 106.194C3.55023 106.703 2.95698 107 2.34083 107V99ZM8.09895 103.029C7.24915 100.79 5.07619 99 2.34083 99V107C1.41937 107 0.825586 106.411 0.619268 105.867L8.09895 103.029Z" fill="#E5E5E5" mask="url(#path-1-inside-1)"/>
</svg>

<svg width="161" height="122" fill="none" xmlns="http://www.w3.org/2000/svg"><mask id="a" fill="#fff"><path fill-rule="evenodd" clip-rule="evenodd" d="M24 4h112c11.598 0 21 9.402 21 21v72c0 11.598-9.402 21-21 21H24c-8.975 0-16.635-5.63-19.64-13.552C4.036 103.6 3.247 103 2.34 103c-1.33 0-2.31 1.252-1.857 2.503C3.963 115.124 13.178 122 24 122h112c13.807 0 25-11.193 25-25V25c0-13.807-11.193-25-25-25H24C12.776 0 3.28 7.397.119 17.582-.263 18.814.706 20 1.997 20c.94 0 1.749-.647 2.042-1.54C6.788 10.063 14.686 4 23.999 4z"/></mask><path d="M.483 105.503l-3.761 1.361 3.761-1.361zm3.876-1.055l3.74-1.419-3.74 1.419zM136 0H24v8h112V0zm25 25c0-13.807-11.193-25-25-25v8c9.389 0 17 7.611 17 17h8zm0 72V25h-8v72h8zm-25 25c13.807 0 25-11.193 25-25h-8c0 9.389-7.611 17-17 17v8zm-112 0h112v-8H24v8zM.62 105.867C4.194 115.291 13.308 122 24 122v-8c-7.26 0-13.466-4.552-15.901-10.971l-7.48 2.838zm-3.898.997C.756 118.018 11.44 126 24 126v-8c-9.084 0-16.83-5.77-19.755-13.857l-7.523 2.721zM24 126h112v-8H24v8zm112 0c16.016 0 29-12.984 29-29h-8c0 11.598-9.402 21-21 21v8zm29-29V25h-8v72h8zm0-72c0-16.016-12.984-29-29-29v8c11.598 0 21 9.402 21 21h8zM136-4H24v8h112v-8zM24-4C10.974-4-.036 4.585-3.701 16.396l7.64 2.371C6.595 10.208 14.578 4 24 4v-8zm0 4C12.905 0 3.509 7.224.237 17.214l7.603 2.49C10.067 12.904 16.466 8 24 8V0zM1.997 24c2.847 0 5.07-1.933 5.843-4.296l-7.603-2.49C.426 16.64 1.031 16 1.997 16v8zm-5.698-7.604C-4.971 20.488-1.683 24 1.997 24v-8c1.098 0 2.447 1.14 1.942 2.767l-7.64-2.37zM2.34 99c-3.774 0-7.124 3.702-5.62 7.864l7.524-2.721a2.201 2.201 0 01-.31 2.051A2.008 2.008 0 012.34 107v-8zm5.758 4.029C7.249 100.79 5.076 99 2.341 99v8c-.922 0-1.515-.589-1.722-1.133l7.48-2.838z" fill="#E5E5E5" mask="url(#a)"/></svg>
